!!!!SEGMENT: pl-wtm--1620-sp-8138_szymanowski-karol--kolysanka-dzieciatka-jezus-op-13-no-2-o-jezu-ty-nasz.krn
!!!cenid: 19xx:66
!!!COM: Szymanowski, Karol
!!!COM-rismID: pe30106403
!!!CDT: 1882-1937
!!!CNT: Polish
!!!OTL: Kołysanka Dzieciątka Jezus Op. 13 No. 2/O Jezu ty nasz
!!!PDT: 1911
!!!AGN: Secular; Song
!!!YEC: Copyright 2022 Narodowy Instytut Fryderyka Chopina (https://polishscores.org)
!!!YEM: License CC-BY-4.0 (https://creativecommons.org/licenses/by/4.0)
!!!SMS-siglum: PL-Wtm
!!!SMS-shelfmark: 1620 śp 8138
!!!SMS-variant:
!!!SMS-altvar:
!!!SMS-shelfwork: W
!!!NIFC-rismSourceID: 1001201971
!!!NIFC-rismChildID: 1001201971
!!!NIFC-islandoraID: pl-wtm:73995
!!!URL-pdf-islandora: https://repozytorium.nifc.pl/islandora/object/pl-wtm%3A73995/datastream/PDF/view
!!!URL-scan: https://polish.musicsources.pl/pl/lokalizacje/galeria/druki-muzyczne/18857/2 @EN{Scan on Polish Music Sources Website} @PL{Skany w portalu Dziedzictwo Muzyki Polskiej w otwartym dostępie}
!!!IIIF:
!!!ONB-nifc:
!!!AIN: 1 piano 1 vox
!!!key: A-
!!!OMD: Andantino semplice\ne dolce.
**kern	**kern	**dynam	**kern	**text	**text	**text	**text	**dynam
*part2	*part2	*part2	*part1	*part1	*part1	*part1	*part1	*part1
*staff3	*staff2	*	*staff1	*staff1	*staff1	*staff1	*staff1	*
*I"Piano	*I"Piano	*	*I"Voce	*	*	*	*	*
*I'pf	*I'pf	*	*I'V	*	*	*	*	*
*Ipiano	*Ipiano	*	*Ivox	*	*	*	*	*
*ICklav	*ICklav	*	*ICvox	*	*	*	*	*
*IGacmp	*IGacmp	*	*IGsolo	*	*	*	*	*
*>[A,B,B,C]	*>[A,B,B,C]	*>[A,B,B,C]	*>[A,B,B,C]	*>[A,B,B,C]	*>[A,B,B,C]	*>[A,B,B,C]	*>[A,B,B,C]	*>[A,B,B,C]
*>A	*>A	*>A	*>A	*>A	*>A	*>A	*>A	*>A
*clefF4	*clefG2	*	*clefG2	*	*	*	*	*
*k[b-e-a-d-]	*k[b-e-a-d-]	*	*k[b-e-a-d-]	*	*	*	*	*
*A-:	*A-:	*	*A-:	*	*	*	*	*
*M3/4	*M3/4	*	*M3/4	*	*	*	*	*
=1	=1	=1	=1	=1	=1	=1	=1	=1
*clefG2	*	*	*	*below	*below	*above	*above	*
!	!LO:TX:b:i:rj:t=legato	!	!	!	!	!	!	!
(8cc/L	(16ee-\KL	pp	4r	.	.	.	.	.
.	8eee-\	.	.	.	.	.	.	.
8e-J 8A-'/)	.	.	.	.	.	.	.	.
.	16aa-\Jk)	.	.	.	.	.	.	.
(8cc/L	(16ee-\KL	.	4r	.	.	.	.	.
.	8eee-\	.	.	.	.	.	.	.
8e-J 8A-'/)	.	.	.	.	.	.	.	.
.	16aa-\Jk)	.	.	.	.	.	.	.
(8cc/L	(16ee-\KL	.	8r	.	.	.	.	.
.	8eee-\	.	.	.	.	.	.	.
*	*	*	*	*vv:1	*vv:2	*vv:1	*vv:2	*
8e-J 8A-'/)	.	.	8e-/	O	(Schlaf)	O	(Je)-	.
.	16aa-\Jk)	.	.	.	.	.	.	.
=2!|:	=2!|:	=2!|:	=2!|:	=2!|:	=2!|:	=2!|:	=2!|:	=2!|:
*>B	*>B	*>B	*>B	*>B	*>B	*>B	*>B	*>B
!LO:TX:b:i:t=simile	!	!	!	!	!	!	!	!
(8cc/L	(16ee-\KL	.	8.cc\	Je-	Je-	Je-	-zu-	.
.	8eee-\	.	.	.	.	.	.	.
8e-J 8A-/)	.	.	.	.	.	.	.	.
.	16aa-\Jk)	.	16cc\	-su-	-su-	-zu	-niu	.
(8a-/L	(16cc\KL	.	4cc\	-lein	-lein	ty	czas	.
.	8eee-\	.	.	.	.	.	.	.
8cJ 8F/)	.	.	.	.	.	.	.	.
.	16aa-\Jk)	.	.	.	.	.	.	.
(8g/L	(16cc\KL	.	8.g/	zart,	wohl,	nasz	spać,	.
.	8ccc\	.	.	.	.	.	.	.
8cJ 8E-/)	.	.	.	.	.	.	.	.
.	16gg\Jk)	.	16e-/	O	nichts	Dzie-	nie	.
!!LO:LB:g=original
=3	=3	=3	=3	=3	=3	=3	=3	=3
*	*	*	*^	*	*	*	*	*
(8cc/L	(16ee-\KL	.	8.cc/	4.cc\	Je-	hin-	-ciąt-	trze-	.
.	8eee-\	.	.	.	.	.	.	.	.
8e-J 8A-/)	.	.	.	.	.	.	.	.	.
.	16aa-\Jk)	.	16cc/	.	-su	.	-ko	-ba	.
(8a-/L	(16cc\KL	.	4cc/	.	lein	.	ty	się	.
.	8eee-\	.	.	.	.	.	.	.	.
8cJ 8F/)	.	.	.	8cc\	.	-dern	.	.	.
.	16aa-\Jk)	.	.	.	.	.	.	.	.
(8g/L	(16cc\KL	.	8.g/	4ryy	zart,	soll,	me,	bać,	.
.	8ccc\	.	.	.	.	.	.	.	.
8cJ 8E-/)	.	.	.	.	.	.	.	.	.
.	16gg\Jk)	.	16e-/	.	Das	Ochs,	W tym	O-	.
=4	=4	=4	=4	=4	=4	=4	=4	=4	=4
(8cc/L	(16ee-\KL	<	(4.ee-/	4.ee-\	Kripp-	E-	żłób-	-sio-	.
.	8eee-\	.	.	.	.	.	.	.	.
8e-J 8A-/)	.	.	.	.	.	.	.	.	.
.	16aa-\Jk)	.	.	.	.	.	.	.	.
(8cc/L	(16ff\KL	.	.	.	.	.	.	.	.
.	8fff\	.	.	.	.	.	.	.	.
8e-J 8A/)	.	.	8ff/)	8ff\	.	.	.	.	.
.	16ccc\Jk)	.	.	.	.	.	.	.	.
(8b-/L	(16dd-\KL	.	8b-/	8b-\	-lein	-sel	-ku	-łek	.
.	8ddd-\	.	.	.	.	.	.	.	.
8d-J 8B-/)	.	.	8b-/	8b-\	ist	und	ci	i	.
.	16ff\Jk)	[	.	.	.	.	.	.	.
*	*	*	*v	*v	*	*	*	*	*
!!LO:LB:g=original
=5	=5	=5	=5	=5	=5	=5	=5	=5
(8g/L	(16cc\KL	.	(4cc\	1. hart,	2. Schaf,	1. źle,	2. wół	.
.	8ccc\	.	.	.	.	.	.	.
8cJ 8B- 8En/)	.	.	.	.	.	.	.	.
.	16gg\Jk)	.	.	.	.	.	.	.
(8g/L	(16b\KL	.	8dd-\)	.	.	.	.	.
.	8bb\	.	.	.	.	.	.	.
8c#XJ 8Bn 8E/)	.	.	8dd-\	Wie	sind	w o-	już	.
!	!LO:TX:b:i:t=riten.	!	!	!	!	!	!	!
.	16gg\Jk)	.	.	.	.	.	.	.
(8g/L	(16b\KL	.	8gni/	liegst	al-	-czę-	drze-	.
.	8bb\	.	.	.	.	.	.	.
8c#J 8B 8E/)	.	.	16a/	du	-le	-tach	-mią	.
.	16gg\Jk)	.	16g/	so	im	masz	na	.
=6	=6	=6	=6	=6	=6	=6	=6	=6
(8g/L	(16cc-X\KL	.	2cc-X\	hart.	Schlaf.	łzy.	pół.	.
.	8ccc-X\	.	.	.	.	.	.	.
8d-XJ 8E-X/)	.	.	.	.	.	.	.	.
!	!LO:TX:b:i:t=riten.	!	!	!	!	!	!	!
.	16gg\Jk)	.	.	.	.	.	.	.
(8g/L	(16dd-\KL	.	.	.	.	.	.	.
.	8ddd-\	>	.	.	.	.	.	.
8c-XJ 8E-/)	.	.	.	.	.	.	.	.
.	16gg\Jk)	.	.	.	.	.	.	.
(8g/L	(16ee-\KL	.	8r	.	.	.	.	.
.	8eee-\	.	.	.	.	.	.	.
8B-J 8E-/)	.	]	8e-/	Schlaf	Ach	Je	Ach	.
.	16gg\Jk)	.	.	.	.	.	.	.
*clefF4	*	*	*	*	*	*	*	*
!!LO:PB:g=original
=7:|!	=7:|!	=7:|!	=7:|!	=7:|!	=7:|!	=7:|!	=7:|!	=7:|!
*>C	*>C	*>C	*>C	*>C	*>C	*>C	*>C	*>C
*^	*^	*	*	*	*	*	*	*
!	!	!LO:TX:b:t=dolce	!	!LO:DY:b:rj	!LO:TX:a:i:t=dolciss. molto espr.	!	!	!	!	!
(8G-X/L	4AA-\	(4eee-/	16bb-\KL	pp	[2ee-\	schlaf,	.	śpij,	.	pp <
.	.	.	8bb--\	.	.	.	.	.	.	.
8c/J	.	.	.	.	.	.	.	.	.	.
.	.	.	16aa-\Jk	<	.	.	.	.	.	.
*clefG2	*	*	*	*	*	*	*	*	*	*
8e-/L	2ryy	4ccc/	16gg\KL	.	.	.	.	.	.	.
.	.	.	8gg-X\	.	.	.	.	.	.	.
8b-/J	.	.	.	.	.	.	.	.	.	.
.	.	.	[16ff\Jk	.	.	.	.	.	.	.
8a-/L	.	4aa-/	16ff\KL]	.	8ee-\]	.	.	.	.	.
.	.	.	8ee-\	.	.	.	.	.	.	.
8g-X/J)	.	.	.	[	8a-/	ach	.	ach	.	.
.	.	.	16cc\Jk)	>]]	.	.	.	.	.	.
*clefF4	*	*	*	*	*	*	*	*	*	*
=8	=8	=8	=8	=8	=8	=8	=8	=8	=8	=8
(8G-X/L	4AA-\	(4eee-/	16bb-\KL	<	(4ee-\	tu'	.	śpij,	.	.
.	.	.	8bb--\	.	.	.	.	.	.	.
8c/J	.	.	.	.	.	.	.	.	.	.
.	.	.	16aa-\Jk	.	.	.	.	.	.	.
*clefG2	*	*	*	*	*	*	*	*	*	*
8e-/L	2ryy	4ccc/	16gg\KL	.	4.gg-X\)	.	.	.	.	[
.	.	.	8gg-X\	.	.	.	.	.	.	.
8b-/J	.	.	.	.	.	.	.	.	.	.
.	.	.	[16ff\Jk	[	.	.	.	.	.	>
8a-/L	.	4aa-/	16ff\KL]	>	.	.	.	.	.	.
.	.	.	8ee-\	.	.	.	.	.	.	.
8g-X/J)	.	.	.	.	8ff\	die	.	o-	.	]]
.	.	.	16cc\Jk)	]	.	.	.	.	.	.
*v	*v	*	*	*	*	*	*	*	*	*
*	*v	*v	*	*	*	*	*	*	*
*clefF4	*	*	*	*	*	*	*	*
!!LO:LB:g=original
=9	=9	=9	=9	=9	=9	=9	=9	=9
(8FF/L	(16an\KL	<	(<4.cc\	Au-	.	-czę-	.	.
.	8aan\	.	.	.	.	.	.	.
8F'/J)	.	.	.	.	.	.	.	.
.	16ee-\Jk)	.	.	.	.	.	.	.
(8anL 8e-\	(16cc\KL	.	.	.	.	.	.	.
.	8ccc\	.	.	.	.	.	.	.
8F\J)	.	.	8cc\)	-ge-	.	.	.	.
.	16ff\Jk)	.	.	.	.	.	.	.
!	!LO:TX:b:i:t=rit.	!	!	!	!	!	!	!
(8b-L 8en\	(16ddn\KL	[	4ddn\	-lein	.	-ta	.	.
.	8dddn 8gg\	.	.	.	.	.	.	.
8F\J)	.	.	.	.	.	.	.	.
.	16gg-X\Jk)	.	.	.	.	.	.	.
=10	=10	=10	=10	=10	=10	=10	=10	=10
*	*	*	*^	*	*	*	*	*
(8anL 8e-X\	(16ff\KL	<	2cc\	2ryy	zu,	.	zmruż,	.	.
.	8fff\	.	.	.	.	.	.	.	.
8F\J)	.	[	.	.	.	.	.	.	.
.	16ccc\Jk)	>	.	.	.	.	.	.	.
(8b-L 8c\	(16gg\KL	.	.	.	.	.	.	.	.
.	8ggg\	.	.	.	.	.	.	.	.
8F\J)	.	.	.	.	.	.	.	.	.
.	16ccc\Jk)	.	.	.	.	.	.	.	.
(8aL 8e-\	(16ff\KL	.	8rg	4ree	.	.	.	.	.
.	8fff\	.	.	.	.	.	.	.	.
8F\J)	.	]	8an\	.	.	.	Daj	.	.
.	16ccc\Jk)	.	.	.	.	.	.	.	.
*	*	*	*v	*v	*	*	*	*	*
=11	=11	=11	=11	=11	=11	=11	=11	=11
*	*^	*	*	*	*	*	*	*
(8AnL 8AAn\	(4eeen/	16bbn\KL	<	2een\	Schlaf	.	wiecz-	.	p <
.	.	8bb-X\	.	.	.	.	.	.	.
8c#X\J	.	.	.	.	.	.	.	.	.
.	.	16aan\Jk	.	.	.	.	.	.	.
*clefG2	*	*	*	*	*	*	*	*	*
8en/L	4ccc#X/	16gg#X\KL	.	.	.	.	.	.	.
.	.	8ggn\	.	.	.	.	.	.	.
8bn/J	.	.	[	.	.	.	.	.	.
.	.	[16ff#X\Jk	.	.	.	.	.	.	.
8an/L	4aan/	16ff#\KL]	>	4an/	und	.	-ny	.	.
.	.	8een\	.	.	.	.	.	.	.
8gn/J)	.	.	.	.	.	.	.	.	.
.	.	16cc#X\Jk)	]]	.	.	.	.	.	.
*clefF4	*	*	*	*	*	*	*	*	*
!!LO:LB:g=original
=12	=12	=12	=12	=12	=12	=12	=12	=12	=12
(8GnL 8AAn\	(4eeen/	16bbn\KL	<	4een\	gib	.	spo-	.	.
.	.	8bb-X\	.	.	.	.	.	.	.
8c#X\J	.	.	.	.	.	.	.	.	.
.	.	16aan\Jk	.	.	.	.	.	.	.
*clefG2	*	*	*	*	*	*	*	*	*
8en/L	4ccc#X/	16gg#X\KL	.	4.ggn\	uns	.	-kój	.	.
.	.	8ggn\	.	.	.	.	.	.	.
8bn/J	.	.	[	.	.	.	.	.	[
.	.	[16ff#X\Jk	.	.	.	.	.	.	.
8an/L	4aan/	16ff#\KL]	>	.	.	.	.	.	.
.	.	8een\	.	.	.	.	.	.	>
8gn/J)	.	.	.	8ff#X\	die	.	dla	.	.
.	.	16cc#X\Jk)	]]	.	.	.	.	.	]]
*	*v	*v	*	*	*	*	*	*	*
*clefF4	*	*	*	*	*	*	*	*
=13	=13	=13	=13	=13	=13	=13	=13	=13
(8GG-X/L	(16b-X\KL	<	(4.dd-X\	e-	.	na-	.	<
.	8bb-X\	.	.	.	.	.	.	.
8G-X/J)	.	.	.	.	.	.	.	.
.	16ff-X\Jk)	.	.	.	.	.	.	.
*clefG2	*	*	*	*	*	*	*	*
(8b-XL 8f-X/	(16ccn\KL	[	.	.	.	.	.	.
.	8cccn\	.	.	.	.	.	.	.
8G-X/J)	.	.	8ff-X\)	.	.	.	.	[
!	!	!	!LO:TX:a:i:t=rit.	!	!	!	!	!
.	16ggn\Jk)	.	.	.	.	.	.	.
!	!LO:TX:a:i:t=rallent.	!	!	!	!	!	!	!
(8bnL 8fn/	(16ddn\KL	.	[<8ee--\	-wi-	.	-szych	.	>
.	8dddn\	.	.	.	.	.	.	.
8G-/J)	.	.	8ee--\]	-ge	.	.	.	]]
.	16aa-X\Jk)	.	.	.	.	.	.	.
!!LO:LB:g=original
=14	=14	=14	=14	=14	=14	=14	=14	=14
(8dd-XL 8gn/	(16een\KL	<	2dd-X\	Ruh'.	.	dusz.	.	.
.	8eeen\	.	.	.	.	.	.	>
8E-X/J)	.	.	.	.	.	.	.	.
.	16bb-\Jk)	.	.	.	.	.	.	.
(8d-X/L	(16ff\KL	[	.	.	.	.	.	.
.	8fff\	>	.	.	.	.	.	.
8g/J	.	.	.	.	.	.	.	.
.	16bb-\Jk)	.	.	.	.	.	.	]
8dd-\L	(16ee\KL	.	8r	.	.	.	.	.
.	8eee\	.	.	.	.	.	.	.
8b-\J)	.	.	8b-\	Die	.	Se-	.	.
.	16gg\Jk)	]]	.	.	.	.	.	.
*clefF4	*	*	*	*	*	*	*	*
=15||	=15||	=15||	=15||	=15||	=15||	=15||	=15||	=15||
*k[]	*k[]	*	*k[]	*	*	*	*	*
(8En`\L	(16gg#XLL 16bn\	pp	8.ee\	Se-	.	-ra-	.	.
.	16eeen'\J)	<	.	.	.	.	.	.
8B`\J	8aaJ 8cc`\	.	.	.	.	.	.	.
.	.	.	16bn\	-ra-	.	-fin	.	.
*clefG2	*	*	*	*	*	*	*	*
8en`/L	(16aa#XLL 16cc#X\	.	4b\	-phim	.	wszczął	.	.
.	16eee'\J)	.	.	.	.	.	.	.
8bn`/J	8bbnJ 8dd`\	.	.	.	.	.	.	.
8e`/)	(16bb#XLL 16dd#X\	.	8.b#X\	singt	.	chór	.	.
.	16eee'\J)	[	.	.	.	.	.	.
8r	8bb#J 8gg#X`\	.	.	.	.	.	.	.
.	.	.	16b#\	und	.	Che-	.	.
*clefF4	*	*	*	*	*	*	*	*
=16	=16	=16	=16	=16	=16	=16	=16	=16
(8EE'/L	(8fff#X:L 8cccn: 8aan: 8dd#X':\	.	(8ff#X\L	Che-	.	-ru-	.	.
8E'/J	8eee:J 8ccc#X: 8aa: 8ee':\	.	16eeni\Jk)	.	.	.	.	.
.	.	.	16ee\	-ru-	.	-bin	.	.
8B'\L	8ddd#X:L 8bbn: 8ff#X':\	.	(8dd#X\L	-bim	.	gra	.	.
8e'\J	8ccc#:J 8aa: 8ee':\	.	8cc#X\J)	.	.	.	.	.
!	!LO:TX:b:i:t=poco rit.	!	!	!	!	!	!	!
8g'\L	8eeeL 8aa#X 8cc#X'\	.	(8ee\L	klingt,	.	wtór,	.	.
8g#X'\J)	8gg#XJ 8ee 8bni'\)	.	8g#X\J)	.	.	.	.	.
!!LO:PB:g=original
=17	=17	=17	=17	=17	=17	=17	=17	=17
*^	*^	*^	*	*	*	*	*	*
(8CC#X/L	4ryy	(16gg#XLL 16ee#X 16bni\	4ryy	<	.	8r	.	.	.	.	.
.	.	16ccc#X'\J)	.	.	.	.	.	.	.	.	.
8C#X/J)	.	8aaniJ 8ccn`\	.	.	.	8an/	Viel	.	Nad	.	<
*clefG2	*	*	*	*	*	*	*	*	*	*	*
!	!	!	!	!	!LO:HP:a=2:t=poco cresc. e riten.	!	!	!	!	!	!
(<8c/L	4cn\	(8ff#X/L	4an\	.	<	8gg-X\	En-	.	żłób-	.	.
8g-X/J	.	8ee-X/J	.	.	.	4ee-X\	-gel	.	-kiem	.	.
8fnL 8e-X/	4ryy	8ccn/L	4a\	[	.	.	.	.	.	.	[
8Fn/J)	.	16ddn/L	.	.	.	8ccn\	im	.	tu	.	.
.	.	16ee-X/JJ	.	.	.	.	.	.	.	.	.
*v	*v	*	*	*	*	*	*	*	*	*	*
=18	=18	=18	=18	=18	=18	=18	=18	=18	=18	=18
(8a-XL 8dn/	8.ee-X/L	4bn\	.	.	[2ffn\	Stall,	.	masz,	.	>
8C'/J)	.	.	.	.	.	.	.	.	.	.
.	16ffni/Jk	.	>	.	.	.	.	.	.	.
(8fL 8e-X/	4cc/)	4a\	.	.	.	.	.	.	.	.
*clefF4	*	*	*	*	*	*	*	*	*	*
8FF/J)	.	.	.	.	.	.	.	.	.	.
(8F\L	(8ff/L	8dd\L	.	.	8ff\]	.	.	.	.	]
8e-X\J)	16ff#X/L	8cc\J	]	.	8ccn\	Die	.	z a-	.	.
.	16gg/JJ)	.	.	.	.	.	.	.	.	.
*	*	*	*v	*v	*	*	*	*	*	*
*	*v	*v	*	*	*	*	*	*	*
=19	=19	=19	=19	=19	=19	=19	=19	=19
!	!LO:TX:a:t=a tempo	!	!	!	!	!	!	!
(8en\L	(16gg#XLL 16bn\	pp <	(4.ddn\	wie-	.	-nioł-	.	pp
.	16eeen'\J)	.	.	.	.	.	.	.
8BnJ 8En\	8aaJ 8cc`\	.	.	.	.	.	.	.
*clefG2	*	*	*	*	*	*	*	*
8en/L	(16aa#XLL 16cc#X\	.	.	.	.	.	.	.
.	16eee'\J)	.	.	.	.	.	.	.
8bn/J	8bb`\J	.	8een\)	.	.	.	.	.
8e/)	(16bb#XLL 16dd#X\	.	8dd#X\	-gen	.	-ków	.	.
.	16eee'\J)	.	.	.	.	.	.	.
8r	8bb#J 8gg#`\	[[	8ee\	dich	.	swych	.	.
*clefF4	*	*	*	*	*	*	*	*
=20	=20	=20	=20	=20	=20	=20	=20	=20
(8EE'~/L	(8fff#X:L 8ccc#X: 8aan: 8dd#X':\	>	2cc#X\	all.	.	straż.	.	.
8E'/J	8eee:J 8ccc#X: 8aa: 8ee':\	.	.	.	.	.	.	.
8B'\L	8ddd#X:L 8bb: 8ff#X':\	.	.	.	.	.	.	.
8e'\J	8ccc#:J 8aa: 8ee':\	.	.	.	.	.	.	.
8g'\L	8eee:L 8aa#X: 8cc#X':\	]	4r	.	.	.	.	.
8g#X'\J)	8gg#X:J 8ee: 8b':\)	.	.	.	.	.	.	.
!!LO:LB:g=original
=21	=21	=21	=21	=21	=21	=21	=21	=21
*	*^	*	*^	*	*	*	*	*
(8CCn/L	(16ggnLL 16b-X\	4ryy	mp <	4ccn\	2ryy	Schlaf,	.	Śpij,	.	.
.	16cccn'\J)	.	.	.	.	.	.	.	.	.
8C'/J)	8gg#XJ 8bn`\	.	.	.	.	.	.	.	.	.
(8Bn\L	(8ffn/L	4a-X\	.	(8ddn\	.	Kind,	.	dzie-	.	.
8f\J	8dd/J	.	[	8bn\)	.	.	.	-cię,	.	.
!	!	!	!	!	!LO:N:vis=4.	!	!	!	!	!
8cL 8B-X\	4ee 4e/	8gn\L	>	8.cc\	4cc/	schlaf,	.	śpij,	.	.
8C\J)	.	16an\L	.	.	.	.	.	.	.	.
.	.	16b-X\JJ)	]]	16cc\	.	.	.	o-	.	.
=22	=22	=22	=22	=22	=22	=22	=22	=22	=22	=22
(8CC/L	(16ggnLL 16b-X\	4ryy	<	8cc/	(8cc\L	tu'	.	-czę-	.	.
.	16ccc'\J)	.	.	.	.	.	.	.	.	.
8C/J)	8gg#XJ 8bn`\	.	.	8ff/	8ffn\J	dein	.	.	.	.
(8Bn\L	(8ffn/L	4a-X\	.	8dd/	8ddn\)	Aug-	.	.	.	.
8f\J	8dd/J	.	[	8bn\	8ryy	-lein	.	-ta	.	.
8fL 8e-X\	8cc/L	4an\	.	4cc\	4ryy	zu,	.	zmruż,	.	.
!	!LO:TX:b:i:t=riten.	!	!	!	!	!	!	!	!	!
8F\J)	16dd/L	.	.	.	.	.	.	.	.	.
.	16ee-X/JJ)	.	.	.	.	.	.	.	.	.
*	*	*	*	*v	*v	*	*	*	*	*
=23	=23	=23	=23	=23	=23	=23	=23	=23	=23
(8BBB-X/L	(16ffnLL 16a-X\	4ryy	<	(<4.dd\	Schlaf	.	daj	.	.
.	16bb-X'\J)	.	.	.	.	.	.	.	.
8BB-X/J)	8gg-XJ 8an`\	.	.	.	.	.	.	.	.
(8An\L	(8ee-X/L	4f#X\	[	.	.	.	.	.	.
8e-X\J	8cc/J	.	.	8cc\)	und	.	.	.	.
8B-X\L	4ee-/	8g\L	>	8ee-X\	gib	.	wiecz-	.	.
8BB-X\J)	.	16a-X\L	.	8b-X\	uns	.	-ny	.	.
.	.	16b-X\JJ)	]]	.	.	.	.	.	.
!!LO:LB:g=original
=24	=24	=24	=24	=24	=24	=24	=24	=24	=24
(8BBB-X/L	(16ffnLL 16a-X\	4ryy	<	8dd\	die	.	spo-	.	.
.	16bb-X'\J)	.	.	.	.	.	.	.	.
8BB-X/J)	8gg-XJ 8an`\	.	.	[8dd\	e-	.	-kój	.	.
!	!LO:TX:b:i:t=riten.	!	!	!	!	!	!	!	!
(8A\L	(8ee-X/L	4f#X\	[	(8dd\L]	.	.	dla	.	.
8e-X\J	8cc/J	.	.	8cc\J	.	.	.	.	.
*	*	*	*	*Xbrackettup	*	*	*	*	*
!	!	!	!	!LO:TUP:a:problem:klamra łukowa	!	!	!	!	!
8B-X\L	4ee-/	8g\L	>	(<12ee-X\)	.	.	na-	.	.
.	.	.	.	12b-X\)	-wi-	.	.	.	.
8BB-\J)	.	16a-X\L	.	.	.	.	.	.	.
.	.	.	.	12b-\	-ge	.	-szych	.	.
.	.	16b-X\JJ)	]	.	.	.	.	.	.
*	*v	*v	*	*	*	*	*	*	*
=25||	=25||	=25||	=25||	=25||	=25||	=25||	=25||	=25||
*k[b-e-a-d-]	*k[b-e-a-d-]	*	*k[b-e-a-d-]	*	*	*	*	*
*	*^	*	*	*	*	*	*	*
!	!LO:TX:b:i:t=ten.	!	!LO:DY:rj	!	!	!	!	!	!
(8AAA-Xi/L	2cc: 2en: 2B-~>:/	2ryy	p <	4.cc\	Ruh.	.	dusz	.	.
8AA-/J	.	.	.	.	.	.	.	.	.
8G\L	.	.	.	.	.	.	.	.	.
8c\J	.	.	[	8r	.	.	.	.	.
!	!	!	!LO:DY:rj	!	!	!	!	!	!
8B-\L	4ee-Xi~/	(>8g\L	mp >	4r	.	.	.	.	.
8BB-\J)	.	16a-\L	.	.	.	.	.	.	.
.	.	16b-\JJ)	]]	.	.	.	.	.	.
=26	=26	=26	=26	=26	=26	=26	=26	=26	=26
!	!LO:TX:b:i:t=ten.	!	!	!	!	!	!	!	!
(8AAA-/L	2cc: 2en: 2B-~>:/	2ryy	p <	2.r	.	.	.	.	.
8AA-/J	.	.	.	.	.	.	.	.	.
8G\L	.	.	.	.	.	.	.	.	.
8c\J	.	.	[	.	.	.	.	.	.
!	!	!	!LO:DY:rj	!	!	!	!	!	!
8B-\L	4ee-Xi~/	(>8g\L	mp >	.	.	.	.	.	.
8BB-\J)	.	16a-\L	.	.	.	.	.	.	.
.	.	16b-\JJ)	]]	.	.	.	.	.	.
=27	=27	=27	=27	=27	=27	=27	=27	=27	=27
*	*	*	*	*^	*	*	*	*	*
!	!LO:TX:b:i:t=ten.	!	!	!	!	!	!	!	!	!
(8GGG-X/L	2cc: 2en: 2B-~>:/	2ryy	pp <	4r	4ryy	.	.	.	.	.
8GG-X/J	.	.	.	.	.	.	.	.	.	.
8G-X\L	.	.	.	4.cc^\	4ryy	Sieh,	.	Zmruż	.	.
8B-\J	.	.	.	.	.	.	.	.	.	.
8A-\L	4dd-X~/	8f-X\L	[	.	8ryy	.	.	.	.	.
8AA-\J)	.	16g-X\L	.	8dd-\	8rgg	.	.	o-	.	.
.	.	16a-X\JJ	.	.	.	.	.	.	.	.
*	*	*	*	*v	*v	*	*	*	*	*
!!LO:LB:g=original
=28	=28	=28	=28	=28	=28	=28	=28	=28	=28
(8GG-X/L	4cc: 4en: 4B-:/	2ryy	pp <	(<8.cc\	Je-	.	-czę-	.	.
8G-X/J	.	.	.	.	.	.	.	.	.
.	.	.	.	16b-\)	-su-	.	.	.	.
*clefG2	*	*	*	*	*	*	*	*	*
8g-X/L	4ccc: 4een: 4b-:\	.	.	4a-/	-lein,	.	-ta	.	.
8b-/J	.	.	.	.	.	.	.	.	.
8a-X/L	4ddd-/	(8ff-X\L	[	8a-^>/	sieh,	.	zmruż,	.	.
8A-X/J)	.	16gg-X\L	.	16r	.	.	.	.	.
.	.	16aa-\JJ)	.	16bn\	Sanct	.	I	.	.
*clefF4	*	*	*	*	*	*	*	*	*
=29	=29	=29	=29	=29	=29	=29	=29	=29	=29
!	!LO:TX:b:i:t=dolce	!	!LO:DY:rj	!LO:TX:a:i:t=dolce	!	!	!	!	!
(8FF#XL 8FFF#X/	(4aa#X/	16een\KL	p	4cc#X\	Jo-	.	Jó-	.	.
.	.	8dd#X\	.	.	.	.	.	.	.
8C#X/J	.	.	.	.	.	.	.	.	.
.	.	16ddn\Jk	.	.	.	.	.	.	.
8F#X\L	4ee/	16cc#X\KL	<	8a#X/	-seph	.	-zef	.	.
.	.	8dd#X\	.	.	.	.	.	.	.
8c#X\J	.	.	.	8a#/	ist	.	jest	.	.
.	.	16cc#\Jk	.	.	.	.	.	.	.
8dn\L	4ee#X/	16bn\KL	.	8g#X/	hie,	.	tuż	.	.
.	.	8cc#\	.	.	.	.	.	.	.
8g#X\J)	.	.	.	(16a#/LL	Ich	.	I	.	.
.	.	16b\Jk)	[	16g#/JJ)	.	.	.	.	.
=30	=30	=30	=30	=30	=30	=30	=30	=30	=30
(8c#X\L	(4ff#X 4a#X/	16een\KL	.	(8cc#X\L	bleib	.	ja	.	.
.	.	8dd#X\	.	.	.	.	.	.	.
8FF#X\J	.	.	.	8een\J)	.	.	.	.	.
.	.	16ddn\Jk	.	.	.	.	.	.	.
8F#X\L	4ee/	16cc#X\KL	.	8a#X/	auch	.	czu-	.	.
.	.	8dd#X\	.	.	.	.	.	.	.
8c#\J	.	.	.	8a#/	hie-	.	-wam	.	.
.	.	16cc#\Jk	.	.	.	.	.	.	.
8dn\L	4ee#X/	16bn\KL	.	(8g#X/L	-bei,	.	też,	.	.
.	.	8cc#X\	.	.	.	.	.	.	.
8g#X\J)	.	.	.	16a#/L	.	.	.	.	.
.	.	16ccn\Jk)	.	16g#/JJ)	.	.	.	.	.
!!LO:PB:g=original
=31	=31	=31	=31	=31	=31	=31	=31	=31	=31
*^	*	*	*	*	*	*	*	*	*
(8gnL 8c#X\	2ryy	(4een/	16bn\KL	.	4gn/	Schlaf	.	w spo-	.	.
.	.	.	8b-X\	.	.	.	.	.	.	.
8AAn\J	.	.	.	.	.	.	.	.	.	.
.	.	.	16an\Jk	.	.	.	.	.	.	.
8An\L	.	4cc#X/	16gn\KL	.	8cc#X\	si-	.	-ko-	.	.
.	.	.	8a\	.	.	.	.	.	.	.
8en\J	.	.	.	.	8cc#\	-cher	.	-ju	.	.
.	.	.	16g\Jk	.	.	.	.	.	.	.
!	!	!LO:TX:a:i:t=riten.	!	!	!	!	!	!	!	!
4dn/	8d\L	4bn/	16fn\KL	.	(8bn\L	und	.	śniąc	.	.
.	.	.	8g\	.	.	.	.	.	.	.
.	8G#X\J)	.	.	.	16cc#\L	.	.	.	.	.
.	.	.	16f\Jk)	.	16b\JJ)	.	.	.	.	.
=32	=32	=32	=32	=32	=32	=32	=32	=32	=32	=32
(8c#XL 8Gn\	2ryy	(4een/	16bn\KL	.	2een\	frei.	.	łez.	.	.
.	.	.	8b-X\	.	.	.	.	.	.	.
8AAn\J	.	.	.	.	.	.	.	.	.	.
.	.	.	16an\Jk	.	.	.	.	.	.	.
8An\L	.	4cc#X/	16gn\KL	.	.	.	.	.	.	.
.	.	.	8a\	.	.	.	.	.	.	.
[8en\J	.	.	.	.	.	.	.	.	.	.
.	.	.	16g\Jk	.	.	.	.	.	.	.
4e/]	8G\L	4ccc#X/	16cc#\KL	.	4r	.	.	.	.	.
.	.	.	8dd#X\	.	.	.	.	.	.	.
.	8c#\J)	.	.	.	.	.	.	.	.	.
.	.	.	16een\Jk)	.	.	.	.	.	.	.
=33	=33	=33	=33	=33	=33	=33	=33	=33	=33	=33
(8G-X/L	4AA-X\	(4eee-X/	16bb-X\KL	p <	2ee-X\	Schlaf,	.	Śpij,	.	.
.	.	.	8bb--\	.	.	.	.	.	.	<
8cn/J	.	.	.	.	.	.	.	.	.	.
.	.	.	16aa-X\Jk	.	.	.	.	.	.	.
8e-X\L	2ryy	4cccn/	16ggn\KL	.	.	.	.	.	.	.
.	.	.	8gg-X\	.	.	.	.	.	.	.
8b-X\J	.	.	.	[	.	.	.	.	.	.
.	.	.	[16ff\Jk	.	.	.	.	.	.	.
8a-X\L	.	4aa-Xi/	16ff\KL]	.	4a-X/	Kind,	.	ach	.	.
.	.	.	8ee-X\	.	.	.	.	.	.	.
8g-X\J)	.	.	.	.	.	.	.	.	.	[
.	.	.	16cc\Jk)	.	.	.	.	.	.	.
*v	*v	*	*	*	*	*	*	*	*	*
!!LO:LB:g=original
=34	=34	=34	=34	=34	=34	=34	=34	=34	=34
(8G-XL 8AA-\	(4eee-/	16bb-\KL	<	(<4ee-\	schlaf,	.	śpij,	.	<
.	.	8bb--\	.	.	.	.	.	.	.
8c\J	.	.	.	.	.	.	.	.	.
.	.	16aa-\Jk	.	.	.	.	.	.	.
8e-\L	4ccc/	16gg\KL	.	4.gg-X\)	tu	.	.	.	.
.	.	8gg-X\	.	.	.	.	.	.	.
8b-\J	.	.	[	.	.	.	.	.	[
.	.	[16ff\Jk	.	.	.	.	.	.	.
8a-\L	4aa-/	16ff\KL]	>	.	.	.	.	.	.
.	.	8ee-\	.	.	.	.	.	.	>
8g-X\J)	.	.	.	8ff\	dein	.	o-	.	.
.	.	16cc\Jk)	]]	.	.	.	.	.	.
*	*v	*v	*	*	*	*	*	*	*
=35	=35	=35	=35	=35	=35	=35	=35	=35
(8FF/L	(16an\KL	<	[<4.cc\	Äu-	.	-czę-	.	.
.	8aan\	.	.	.	.	.	.	]
8F/J)	.	.	.	.	.	.	.	.
.	16ee-\Jk)	.	.	.	.	.	.	.
(8anL 8e-\	(16cc\KL	.	.	.	.	.	.	.
.	8ccc\	.	.	.	.	.	.	.
8F\J)	.	[	8cc\]	-ge-	.	.	.	.
.	16ff\Jk)	.	.	.	.	.	.	.
(8b-L 8en\	(16ddn\KL	>	4ddn\	-lein	.	-ta	.	.
.	8dddn 8gg\	.	.	.	.	.	.	.
8F\J)	.	.	.	.	.	.	.	.
.	16gg-X\Jk)	]]	.	.	.	.	.	.
=36	=36	=36	=36	=36	=36	=36	=36	=36
*	*	*	*^	*	*	*	*	*
(8anL 8e-X\	(16ff\KL	<	2cc\	2ryy	zu,	.	zmruż,	.	.
.	8fff\	.	.	.	.	.	.	.	.
8F\J)	.	.	.	.	.	.	.	.	.
.	16ccc\Jk)	.	.	.	.	.	.	.	.
(8b-L 8c\	(16gg\KL	.	.	.	.	.	.	.	.
.	8ggg\	.	.	.	.	.	.	.	.
8F\J)	.	.	.	.	.	.	.	.	.
.	16ccc\Jk)	[	.	.	.	.	.	.	.
(8aL 8e-\	(16ff\KL	>	8rg	4ree	.	.	.	.	.
.	8fff\	.	.	.	.	.	.	.	.
8F\J)	.	.	8an\	.	.	.	Daj	.	.
.	16ccc\Jk)	]]	.	.	.	.	.	.	.
*	*	*	*v	*v	*	*	*	*	*
=37	=37	=37	=37	=37	=37	=37	=37	=37
*	*^	*	*	*	*	*	*	*
(8GnL 8AAn\	(4eeen/	16bbn\KL	<	2een\	Schlaf	.	wiecz-	.	.
.	.	8bb-X\	.	.	.	.	.	.	.
8c#X\J	.	.	.	.	.	.	.	.	<
.	.	16aan\Jk	.	.	.	.	.	.	.
8en\L	4ccc#X/	16gg#X\KL	.	.	.	.	.	.	.
.	.	8ggn\	.	.	.	.	.	.	.
8bn\J	.	.	.	.	.	.	.	.	.
.	.	[16ff#X\Jk	[	.	.	.	.	.	.
8an\L	4aan/	16ff#\KL]	>	4an/	und	.	-ny	.	.
.	.	8een\	.	.	.	.	.	.	.
8gn\J)	.	.	.	.	.	.	.	.	.
.	.	16cc#X\Jk)	]]	.	.	.	.	.	.
!!LO:LB:g=original
=38	=38	=38	=38	=38	=38	=38	=38	=38	=38
(8GnL 8AAn\	(4eeen/	16bbn\KL	<	4een\	gib	.	spo-	.	.
.	.	8bb-X\	.	.	.	.	.	.	.
8c#X\J	.	.	.	.	.	.	.	.	[
.	.	16aan\Jk	.	.	.	.	.	.	.
8en\L	4ccc#X/	16gg#X\KL	.	4.ggn\	uns	.	-kój	.	.
.	.	8ggn\	.	.	.	.	.	.	>
8bn\J	.	.	[	.	.	.	.	.	.
.	.	[16ff#X\Jk	.	.	.	.	.	.	.
8an\L	4aan/	16ff#\KL]	>	.	.	.	.	.	.
.	.	8een\	.	.	.	.	.	.	.
8gn\J)	.	.	.	8ff#X\	die	.	dla	.	.
.	.	16cc#X\Jk)	]]	.	.	.	.	.	.
*	*v	*v	*	*	*	*	*	*	*
=39	=39	=39	=39	=39	=39	=39	=39	=39
(8GG-X/L	(16b-X\KL	<	(4.dd-X\	e-	.	na-	.	]
.	8bb-X\	.	.	.	.	.	.	.
8G-X/J)	.	.	.	.	.	.	.	<
.	16ff-X\Jk)	.	.	.	.	.	.	.
(8b-XL 8f-X\	(16ccn\KL	.	.	.	.	.	.	.
.	8cccn\	.	.	.	.	.	.	.
8G-X\J)	.	.	8ff-X\)	.	.	.	.	.
.	16ggn\Jk)	.	.	.	.	.	.	[
(8bnL 8fn\	(16ddn\KL	.	[<8ee--\	-wi-	.	-szych	.	>
.	8dddn\	.	.	.	.	.	.	.
8G-\J)	.	[	8ee--\]	-ge	.	.	.	.
.	16aa-X\Jk)	.	.	.	.	.	.	.
*clefG2	*	*	*	*	*	*	*	*
=40	=40	=40	=40	=40	=40	=40	=40	=40
!	!LO:TX:b:i:t=rallent.	!	!	!	!	!	!	!
(8dd-XL 8gn/	(16een\KL	.	2dd-X\	Ruh.	.	dusz.	.	.
.	8eeen\	>	.	.	.	.	.	.
8E-X/J)	.	.	.	.	.	.	.	]
.	16bb-\Jk)	.	.	.	.	.	.	.
(8d-X/L	(16ff\KL	.	.	.	.	.	.	.
.	8fff\	.	.	.	.	.	.	.
8g/J	.	.	.	.	.	.	.	.
.	16bb-\Jk)	.	.	.	.	.	.	.
8dd-\L	(16ee\KL	.	4r	.	.	.	.	.
.	8eee\	.	.	.	.	.	.	.
8b-\J)	.	.	.	.	.	.	.	.
.	16bb-\Jk)	]	.	.	.	.	.	.
!!LO:LB:g=original
=41	=41	=41	=41	=41	=41	=41	=41	=41
*	*	*	*^	*	*	*	*	*
!	!	!	!	!LO:N:vis=4.	!	!	!	!	!
(8cc/L	(16ee-\KL	p	8.cc\	4cc/	Schweig,	.	skończ	.	.
.	8eee-\	.	.	.	.	.	.	.	.
8e-J 8A-'/)	.	.	.	.	.	.	.	.	.
.	16aa-\Jk)	.	16cc\	.	.	.	o-	.	.
!	!	!	!LO:TUP:a:problem:klamra łukowa	!	!	!	!	!	!
(8a-/L	(16cc\KL	.	12cc/	8cc\	E-	.	-sioł	.	.
.	8eee-\	.	.	.	.	.	.	.	.
.	.	.	12cc/	.	-se-	.	.	.	.
8cJ 8F'/)	.	.	.	8cc\	.	.	ku	.	.
.	.	.	12cc/	.	-lein	.	.	.	.
.	16aa-\Jk)	.	.	.	.	.	.	.	.
(8g/L	(16cc\KL	.	8.g/	4ryy	still,	.	żuć,	.	.
.	8ccc\	.	.	.	.	.	.	.	.
8cJ 8E-'/)	.	.	.	.	.	.	.	.	.
.	16gg\Jk)	.	16e-/	.	das	.	dzie-	.	.
*	*	*	*v	*v	*	*	*	*	*
=42	=42	=42	=42	=42	=42	=42	=42	=42
(8cc/L	(16ee-\KL	.	4cc\	Kind	.	-ci-	.	.
.	8eee-\	.	.	.	.	.	.	.
8e-J 8A-/)	.	.	.	.	.	.	.	.
.	16aa-\Jk)	.	.	.	.	.	.	.
(8a-/L	(16cc\KL	.	8cc\	schla-	.	-ny	.	.
.	8eee-\	.	.	.	.	.	.	.
8cJ 8F/)	.	.	8cc\	-fen	.	nie	.	.
.	16aa-\Jk)	.	.	.	.	.	.	.
(8g/L	(16cc\KL	.	8g/	will,	.	budź,	.	.
.	8ccc\	.	.	.	.	.	.	.
8cJ 8E-/)	.	.	16r	.	.	.	.	.
.	16gg\Jk)	.	16e-/	ei	.	A	.	.
=43	=43	=43	=43	=43	=43	=43	=43	=43
(8cc/L	(16ee-\KL	<	(4.ee-\	Oechs-	.	ty	.	<
.	8eee-\	.	.	.	.	.	.	.
8e-J 8A-/)	.	.	.	.	.	.	.	.
.	16aa-\Jk)	.	.	.	.	.	.	.
(8cc/L	(16ff\KL	.	.	.	.	.	.	.
.	8fff\	.	.	.	.	.	.	.
8e-J 8An/)	.	.	8ff\)	.	.	.	.	[
.	16ccc\Jk)	.	.	.	.	.	.	.
(8b-/L	(16dd-\KL	[	8b-\	-le,	.	woł-	.	.
.	8ddd-\	.	.	.	.	.	.	.
8d-J 8B-/)	.	.	8b-\	nicht	.	-ku	.	.
.	16ff\Jk)	.	.	.	.	.	.	.
!!LO:PB:g=original
=44	=44	=44	=44	=44	=44	=44	=44	=44
(8g/L	(16cc\KL	<	[<8.cc\	brüll,	.	też	.	.
.	8ccc\	.	.	.	.	.	.	.
8cJ 8B- 8En/)	.	.	.	.	.	.	.	.
.	16gg\Jk)	.	16cc\]	das	.	.	.	.
(8g/L	(16bn\KL	.	4dd-X\	Kind	.	ry-	.	.
.	8bbn\	.	.	.	.	.	.	.
8c#XJ 8Bn 8E/)	.	.	.	.	.	.	.	.
.	16gg\Jk)	.	.	.	.	.	.	.
(8g/L	(16b\KL	.	8gn/	das	.	-czeć	.	.
.	8bb\	[	.	.	.	.	.	.
!	!LO:TX:a:i:t=rallent.	!	!	!	!	!	!	!
8c#J 8B 8E/)	.	.	16an/	schla-	.	mi	.	.
.	16gg\Jk)	.	16g/	-fen	.	się	.	.
=45	=45	=45	=45	=45	=45	=45	=45	=45
(8g/L	(16cc-X\KL	>	2cc-X\	will.	.	strzez.	.	.
.	8ccc-X\	.	.	.	.	.	.	.
8d-XJ 8E-X/)	.	.	.	.	.	.	.	.
.	16gg\Jk)	.	.	.	.	.	.	.
(8g/L	(16dd-\KL	.	.	.	.	.	.	.
.	8ddd-\	.	.	.	.	.	.	.
8c-XJ 8E-/)	.	.	.	.	.	.	.	.
.	16gg\Jk)	.	.	.	.	.	.	.
(8g/L	(16ee-\KL	.	4r	.	.	.	.	.
.	8eee-\	.	.	.	.	.	.	.
8B-J 8E-/)	.	]	.	.	.	.	.	.
.	16gg\Jk)	.	.	.	.	.	.	.
*clefF4	*	*	*	*	*	*	*	*
=46	=46	=46	=46	=46	=46	=46	=46	=46
*^	*	*	*	*	*	*	*	*
!	!	!LO:TX:a:i:t=a tempo dolcissimo	!	!	!	!	!	!	!
(8A-L 8AA-\	4ryy	(16ccni\KL	ppp <	2aa-Xi\	Schlaf,	.	Śpij,	.	ppp <
!	!	!	!	!LO:TX:a:i:t=dolcissimo espr.	!	!	!	!	!
.	.	8eee-\	.	.	.	.	.	.	.
8e-\J	.	.	.	.	.	.	.	.	.
.	.	16aa-\Jk)	.	.	.	.	.	.	.
4f-X/	8f-\L	(16ff\KL	.	.	.	.	.	.	.
.	.	8ddd-\	.	.	.	.	.	.	.
.	8A-\J	.	.	.	.	.	.	.	.
.	.	16aa-\Jk)	.	.	.	.	.	.	.
4g-/	8g-X\L	(16ee--\KL	.	4gg-X\	Kind,	.	już	.	[
.	.	8ccc-X\	[	.	.	.	.	.	.
.	8A-\J)	.	.	.	.	.	.	.	.
.	.	16gg-X\Jk)	.	.	.	.	.	.	.
!!LO:LB:g=original
=47	=47	=47	=47	=47	=47	=47	=47	=47	=47
(8A-L 8AA-\	4ryy	(16ccn\KL	.	(<4ee-\	schlaf,	.	śpij,	.	.
.	.	8eee-\	>	.	.	.	.	.	.
8e-\J	.	.	.	.	.	.	.	.	.
.	.	16aa-\Jk)	.	.	.	.	.	.	.
4f-X/	8f-\L	(16dd-\KL	.	4.dd-X^\)	tu	.	.	.	.
.	.	8ddd-\	.	.	.	.	.	.	.
.	8A-\J	.	.	.	.	.	.	.	.
.	.	16aa-\Jk)	.	.	.	.	.	.	.
4g-X/	8g-\L	(16ee--\KL	.	.	.	.	.	.	.
.	.	8ccc-X\	]	.	.	.	.	.	.
.	8A-\J)	.	.	8cc-X\	dein	.	o-	.	.
.	.	16gg-X\Jk)	.	.	.	.	.	.	.
*v	*v	*	*	*	*	*	*	*	*
=48	=48	=48	=48	=48	=48	=48	=48	=48
(8AA-L 8AAA-/	(16cc-X\KL	<	(4.a-/	Äu-	.	-czę-	.	.
.	8aa-\	.	.	.	.	.	.	.
8F-X/J	.	.	.	.	.	.	.	.
.	16ff-X\Jk)	.	.	.	.	.	.	.
8c-X\L	(16b-\KL	.	.	.	.	.	.	.
.	8bb-\	.	.	.	.	.	.	.
8F-\J	.	.	8a-/)	-ge-	.	.	.	.
.	16ff-\Jk)	.	.	.	.	.	.	.
8c-\L	(16a-\KL	.	4b-\	-lein	.	-ta	.	.
.	8aa-\	.	.	.	.	.	.	.
8f-X\J)	.	.	.	.	.	.	.	.
.	16ff-\Jk)	.	.	.	.	.	.	.
=49	=49	=49	=49	=49	=49	=49	=49	=49
*	*	*	*^	*	*	*	*	*
2a-\	(16cc-X\KL	[	2a-/	2ryy	zu,	.	zmruż,	.	.
.	8aa-\	.	.	.	.	.	.	.	.
.	16ff-X\Jk)	.	.	.	.	.	.	.	.
.	(16cc-\KL	>	.	.	.	.	.	.	.
.	8ccc-X\	.	.	.	.	.	.	.	.
.	16ff-\Jk)	.	.	.	.	.	.	.	.
4a- 4f-X\	(16dd-\KL	.	8rg	4ree	.	.	.	.	.
!	!LO:TX:b:i:t=rit.	!	!	!	!	!	!	!	!
.	8ddd-\	.	.	.	.	.	.	.	.
.	.	.	8a-\	.	.	.	Daj	.	.
.	16aa-\Jk)	]	.	.	.	.	.	.	.
*	*	*	*v	*v	*	*	*	*	*
!!LO:LB:g=original
=50	=50	=50	=50	=50	=50	=50	=50	=50
*^	*	*	*	*	*	*	*	*
!	!	!	!	!	!	!	!	!	!LO:DY:rj
(>8AA-L 8AAA-/	4ryy	(16ccn\KL	pp	2cc\	Schlaf	.	wiecz-	.	pp <
.	.	8eee-\	.	.	.	.	.	.	.
8e-/J	.	.	.	.	.	.	.	.	.
.	.	16aa-\Jk)	<	.	.	.	.	.	.
4f-X/	8f-\L	(16dd-\KL	.	.	.	.	.	.	.
.	.	8ddd-\	.	.	.	.	.	.	.
.	8A-\J	.	.	.	.	.	.	.	.
.	.	16aa-\Jk)	.	.	.	.	.	.	.
4g-X/	8g-\L	(16ee--\KL	.	4gg-X\	und	.	-ny	.	[
.	.	8ccc-X\	.	.	.	.	.	.	.
.	8A-\J)	.	.	.	.	.	.	.	.
.	.	16gg-X\Jk)	[[	.	.	.	.	.	.
=51	=51	=51	=51	=51	=51	=51	=51	=51	=51
(8A-L 8AA-\	4ryy	(16ccn\KL	.	4ee-\	gib	.	spo-	.	>
.	.	8eee-\	.	.	.	.	.	.	.
8e-\J	.	.	>	.	.	.	.	.	.
.	.	16aa-\Jk)	.	.	.	.	.	.	.
4f-X/	8f-\L	(16dd-\KL	.	4.dd-\	uns	.	-kój	.	.
.	.	8ddd-\	.	.	.	.	.	.	.
.	8A-\J	.	.	.	.	.	.	.	.
.	.	16aa-\Jk)	.	.	.	.	.	.	.
4g-X/	8g-\L	(16ee--\KL	.	.	.	.	.	.	.
.	.	8ccc-X\	]	.	.	.	.	.	.
.	8A-\J)	.	.	8cc-X\	die	.	dla	.	]
.	.	16gg-X\Jk)	.	.	.	.	.	.	.
*v	*v	*	*	*	*	*	*	*	*
=52	=52	=52	=52	=52	=52	=52	=52	=52
(8AAA-/L	(16ddnKL 16b-\	<	(<4.b-\	e-	.	na-	.	.
.	8bb-\	.	.	.	.	.	.	.
8AA-/J	.	.	.	.	.	.	.	.
.	16ff\Jk)	.	.	.	.	.	.	.
8Dn\L	(16cc-XKL 16a-\	.	.	.	.	.	.	.
.	8aa-\	.	.	.	.	.	.	.
8A-\J	.	.	8a-/)	-wi-	.	.	.	.
.	16ff-X\Jk)	.	.	.	.	.	.	.
*clefG2	*	*	*	*	*	*	*	*
8dn/L	(16cc-KL 16a-\	.	4a-/	-ge	.	-szych	.	.
!	!LO:TX:b:i:t=riten.	!	!	!	!	!	!	!
.	8aa-\	[	.	.	.	.	.	.
(8a-/J)	.	.	.	.	.	.	.	.
.	16ff-\Jk)	.	.	.	.	.	.	.
!!LO:LB:g=original
=53	=53	=53	=53	=53	=53	=53	=53	=53
(8cc/L)	(16ee-\KL	.	[2.ee-\	Ruh.	.	dusz.	.	.
.	8eee-\	<	.	.	.	.	.	.
8e-J 8A-/)	.	.	.	.	.	.	.	.
.	16aa-\Jk)	.	.	.	.	.	.	.
(8a-/L	(16cc\KL	.	.	.	.	.	.	.
.	8eee-\	.	.	.	.	.	.	.
8cJ 8F/)	.	.	.	.	.	.	.	.
.	16aa-\Jk)	.	.	.	.	.	.	.
(8g/L	(16cc\KL	[	.	.	.	.	.	.
.	8ccc\	>	.	.	.	.	.	.
8cJ 8E-/)	.	.	.	.	.	.	.	.
.	16gg\Jk)	]]	.	.	.	.	.	.
=54	=54	=54	=54	=54	=54	=54	=54	=54
(8cc/L	(16ee-\KL	<	2.ee-\]	.	.	.	.	.
.	8eee-\	.	.	.	.	.	.	.
8e-J 8A-/)	.	.	.	.	.	.	.	.
.	16aa-\Jk)	.	.	.	.	.	.	.
(8a-/L	(16cc\KL	.	.	.	.	.	.	.
.	8eee-\	.	.	.	.	.	.	.
8cJ 8F/)	.	.	.	.	.	.	.	.
.	16aa-\Jk)	[	.	.	.	.	.	.
(8g/L	(16cc\KL	>	.	.	.	.	.	.
.	8ccc\	.	.	.	.	.	.	.
8cJ 8E-/)	.	.	.	.	.	.	.	.
.	16gg\Jk)	]]	.	.	.	.	.	.
*clefF4	*	*	*	*	*	*	*	*
=55	=55	=55	=55	=55	=55	=55	=55	=55
!	!	!LO:HP:t=rallent.\ne dimin.	!	!	!	!	!	!
(8AAA-'/L	(16cc\KL	>	2.r	.	.	.	.	.
.	8eee-\	.	.	.	.	.	.	.
8EE-'/J	.	.	.	.	.	.	.	.
.	16aa-\Jk)	.	.	.	.	.	.	.
8AA-'/L	(16cc\KL	.	.	.	.	.	.	.
.	8eee-\	.	.	.	.	.	.	.
8E-'/J	.	.	.	.	.	.	.	.
.	16aa-\Jk)	.	.	.	.	.	.	.
8A-'\L	(16cc\KL	.	.	.	.	.	.	.
.	8eee-\	.	.	.	.	.	.	.
8e-'\J	.	.	.	.	.	.	.	.
.	(16aa-\Jk)	.	.	.	.	.	.	.
=56	=56	=56	=56	=56	=56	=56	=56	=56
2.a->;<\)	2.aa-;/)	ppp	2.r;	.	.	.	.	.
==	==	==	==	==	==	==	==	==
*-	*-	*-	*-	*-	*-	*-	*-	*-
!!!system-decoration: p1{(p2)}
!!!RDF**kern: > = above
!!!RDF**kern: < = below
!!!RDF**kern: i = editorial accidental, paren
!!!ENC: Andrzej Gręziak
!!!END: 2023-09-05
!!!EED: Marta Lawrence
!!!EEV: 2023-09-28
